X: 1
T:La Montagnarde (version Pauvert)
M:3/8
L:1/8
K:C
c/d/ee|c/d/ee|c/d/gf|ed2|\
c/d/ee|c/d/ee|c/d/ge|d3:|
|:c2B|ABc|d2f|ed2|\
c2B|ABc|ded|c3:|
